src/icons/node-js-svgrepo-com.svg

<?xml version="1.0" encoding="utf-8"?><!-- Uploaded to: SVG Repo, www.svgrepo.com, Generator: SVG Repo Mixer Tools -->
<svg width="800px" height="800px" viewBox="0 0 32 32" fill="none" xmlns="http://www.w3.org/2000/svg">
<path d="M17.1725 2.29872C16.4627 1.89953 15.5373 1.90132 14.8269 2.29872C11.2689 4.26227 7.71082 6.22641 4.15216 8.18906C3.45969 8.55335 2.99264 9.29698 3.00009 10.0688V21.9328C2.99509 22.7197 3.48622 23.4705 4.19655 23.8298C5.21871 24.3736 6.2118 24.9726 7.25244 25.4802C8.45451 26.0709 9.95843 26.2015 11.1752 25.5855C12.1629 25.075 12.6016 23.9395 12.6003 22.896C12.6083 18.9806 12.6016 15.0651 12.6034 11.1496C12.6269 10.9756 12.4962 10.7896 12.3064 10.7938C11.8517 10.7866 11.3964 10.7896 10.9417 10.7926C10.7699 10.7764 10.6022 10.9191 10.6152 11.0918C10.6091 14.982 10.6164 18.8734 10.6115 22.7642C10.6214 23.3024 10.2578 23.8196 9.73913 24.0014C8.5412 24.4213 5.12198 22.2012 5.12198 22.2012C4.9965 22.1431 4.91682 22.007 4.92912 21.8718C4.92912 17.9576 4.92973 14.0433 4.92912 10.1297C4.91187 9.97191 5.00912 9.8298 5.15402 9.76538C8.70033 7.8134 12.2448 5.85654 15.7911 3.90336C15.9143 3.82115 16.086 3.8214 16.2089 3.90396C19.7552 5.85654 23.3003 7.81161 26.8472 9.76368C26.9926 9.828 27.0857 9.9725 27.0709 10.1297C27.0703 14.0433 27.0721 17.9576 27.0697 21.8713C27.0802 22.0098 27.0086 22.144 26.8793 22.2048C23.3661 24.1462 19.8129 26.025 16.3315 28.0228C16.1796 28.1099 16.0075 28.2086 15.8373 28.1126C14.9218 27.6062 14.0174 27.0801 13.1049 26.5688C13.0057 26.5069 12.8794 26.4803 12.7759 26.5496C12.3668 26.7652 11.982 26.9398 11.5122 27.1258C10.8524 27.387 10.9578 27.4938 11.5529 27.8405C12.62 28.4444 13.6889 29.0459 14.756 29.6504C15.4585 30.0888 16.4024 30.12 17.1275 29.7149C20.6861 27.7538 24.2436 25.7904 27.8029 23.8293C28.5113 23.468 29.0049 22.7202 28.9999 21.9327V10.0688C29.0068 9.31264 28.5576 8.58227 27.886 8.21259C24.3156 6.23947 20.7435 4.27064 17.1725 2.29872Z" fill="#8CC84B"/>
<path d="M22.5419 11.2062C21.1452 10.459 19.4836 10.4192 17.9315 10.5169C16.8102 10.6277 15.6309 10.9371 14.814 11.7409C13.9761 12.5489 13.7937 13.8537 14.1917 14.9085C14.4769 15.6539 15.1948 16.1386 15.9372 16.395C16.8935 16.7326 17.8979 16.837 18.9026 16.9414C19.819 17.0366 20.7357 17.1319 21.6165 17.4042C21.9763 17.5234 22.3953 17.7058 22.5055 18.0973C22.6073 18.5609 22.4957 19.0998 22.1193 19.4219C20.9237 20.3682 17.5979 20.2232 16.4166 19.4784C15.939 19.1611 15.7332 18.5994 15.6495 18.0641C15.6402 17.8973 15.5059 17.7443 15.3248 17.757C14.8713 17.7516 14.4178 17.7528 13.9643 17.7564C13.8061 17.7431 13.6416 17.8557 13.6329 18.0172C13.5397 20.4689 15.7914 21.5377 17.9039 21.773C19.1108 21.888 20.3442 21.8814 21.5327 21.6224C22.4261 21.419 23.3219 21.0444 23.9369 20.3563C24.6953 19.52 24.8444 18.2749 24.5043 17.2332C24.2443 16.4559 23.5012 15.9573 22.7416 15.7008C21.7086 15.3466 20.4844 15.1562 19.5488 15.0671C18.1889 14.9376 16.5729 14.9905 16.188 14.0969C16.0345 13.629 16.1651 13.048 16.5951 12.7602C17.7328 11.9885 20.0483 12.091 21.2265 12.6675C21.7675 12.9384 22.081 13.4948 22.2104 14.0565C22.2344 14.2215 22.3454 14.3937 22.5364 14.3865C22.9868 14.3955 23.4372 14.3889 23.8875 14.3895C24.0422 14.4003 24.2116 14.313 24.2418 14.1546C24.2227 12.9806 23.6232 11.7788 22.5419 11.2062Z" fill="#8CC84B"/>
</svg>

<svg xmlns="http://www.w3.org/2000/svg" width="800" height="800" fill="none" viewBox="0 0 32 32"><path fill="#8cc84b" d="M17.173 2.299a2.45 2.45 0 0 0-2.346 0L4.152 8.189C3.46 8.553 2.992 9.297 3 10.07v11.864c-.005.787.486 1.538 1.197 1.897 1.022.544 2.015 1.143 3.055 1.65 1.203.59 2.706.721 3.923.105.988-.51 1.427-1.646 1.425-2.689.008-3.915.002-7.83.003-11.746.024-.174-.107-.36-.297-.356-.454-.007-.91-.004-1.364-.001-.172-.017-.34.126-.327.299-.006 3.89.001 7.781-.004 11.672a1.32 1.32 0 0 1-.872 1.237c-1.198.42-4.617-1.8-4.617-1.8a.34.34 0 0 1-.193-.33V10.13a.36.36 0 0 1 .225-.365q5.318-2.93 10.637-5.862a.38.38 0 0 1 .418.001q5.318 2.93 10.638 5.86a.37.37 0 0 1 .224.366q.001 5.87-.001 11.741a.34.34 0 0 1-.19.334c-3.514 1.941-7.067 3.82-10.548 5.818-.152.087-.325.186-.495.09-.915-.507-1.82-1.033-2.732-1.544-.1-.062-.226-.089-.33-.02-.408.216-.793.39-1.263.577-.66.261-.554.368.04.714q1.603.905 3.204 1.81c.703.439 1.646.47 2.372.065q5.337-2.943 10.675-5.886c.708-.361 1.202-1.109 1.197-1.896V10.069c.007-.756-.442-1.487-1.114-1.856-3.57-1.974-7.142-3.942-10.713-5.914"/><path fill="#8cc84b" d="M22.542 11.206c-1.397-.747-3.058-.787-4.61-.69-1.122.112-2.301.421-3.118 1.225-.838.808-1.02 2.113-.622 3.168.285.745 1.003 1.23 1.745 1.486.957.338 1.96.442 2.966.546.916.096 1.833.19 2.714.463.36.12.778.302.889.693.101.464-.01 1.003-.387 1.325-1.195.946-4.521.801-5.702.056-.478-.317-.684-.879-.768-1.414-.009-.167-.143-.32-.324-.307a69 69 0 0 0-1.36 0c-.159-.014-.323.099-.332.26-.093 2.452 2.158 3.52 4.27 3.756 1.208.115 2.441.108 3.63-.15.893-.204 1.789-.579 2.404-1.267.758-.836.907-2.081.567-3.123-.26-.777-1.003-1.276-1.762-1.532-1.033-.354-2.258-.545-3.193-.634-1.36-.13-2.976-.076-3.361-.97-.153-.468-.023-1.049.407-1.337 1.138-.771 3.453-.669 4.632-.092.54.27.854.827.983 1.389.024.165.135.337.326.33.45.008.901.002 1.351.002.155.011.325-.076.355-.234-.02-1.174-.619-2.376-1.7-2.949"/></svg>
